public/avatar/shoe/74.svg

<svg xmlns:xlink="http://www.w3.org/1999/xlink" height="38.3" width="36.05" xmlns="http://www.w3.org/2000/svg"><use height="14.35" transform="translate(9.55 14.45)" width="22.2" xlink:href="#a"/><defs><g id="a"><path d="M.6.2q-4 .35-6.85 2.15-3.8 2.4-6.1 5.2l-.4.55q-1.15 1.15-1 2.45.05 1.3 1 2.1l.05.15h.15Q-1.3 15.2 7.1 8.55l.15-.15v-.25q.65-4.25-1.5-6.9Q4.55-.2.6.2m5.65 7.5q-7.6 5.85-18.45 3.95-.45-.5-.5-1.15v-.05q0-.75.75-1.55l.4-.5Q-9.3 5.7-5.7 3.35-3.05 1.7.65 1.4q3.45-.35 4.3.7Q6.3 3.75 6.3 6.5l-.05 1.2" fill="none" stroke="#005c6d" stroke-linecap="round" stroke-linejoin="round" transform="translate(14.25 .4)"/><path d="M5.8 1.25q2.1 2.6 1.5 6.9v.25l-.15.15q-8.4 6.65-19.6 4.25h-.2l-.05-.15q-1-.85-1.05-2.1-.1-1.35 1.05-2.45l.4-.55q2.3-2.8 6.1-5.2Q-3.4.55.6.2q3.95-.4 5.2 1.05" fill="#00596e" fill-rule="evenodd" transform="translate(14.25 .4)"/><path d="M5.8 1.25Q4.55-.2.6.2q-4 .35-6.8 2.15-3.8 2.4-6.1 5.2l-.4.55q-1.15 1.1-1.05 2.45.05 1.25 1.05 2.1l.05.15h.2q11.2 2.4 19.6-4.25l.15-.15v-.25q.6-4.3-1.5-6.9Z" fill="none" stroke="#005c6d" stroke-linecap="round" stroke-linejoin="round" transform="translate(14.25 .4)"/><path d="m6.9 7.1-.1 1q-8.25 6.5-19.25 4.1l-.55-.85Q-1.3-4.4 6.9 7.1" fill="#acd495" fill-rule="evenodd" transform="translate(14.25 .4)"/><path d="M-13.05 11.4q-.6-1.45.7-2.95 3.7-3.95 6.4-5.6l1.35-.7q7 3.4 9.25 6.1-8.35 4.25-17.7 3.15" fill="#d4eff5" fill-rule="evenodd" transform="translate(14.25 .4)"/><path d="M5.35 1.7q1.7 2.05 1.5 5.45l-2.2 1.1Q2.4 5.55-4.6 2.15-1.85.9 1.3.75q3.15-.1 4.05.95" fill="#81d2e4" fill-rule="evenodd" transform="translate(14.25 .4)"/><path d="m-9.2 4.95 3.95-2.4Q-2.35 4-3.05 5.4q-.65 1.3-3.1 1.15l-3.05-1.6" fill="#34bed6" fill-rule="evenodd" transform="translate(14.25 .4)"/></g></defs></svg>

<?xml version="1.0" encoding="UTF-8" standalone="no"?>
<svg xmlns:xlink="http://www.w3.org/1999/xlink" height="38.3px" width="36.05px" xmlns="http://www.w3.org/2000/svg">
  <g transform="matrix(1.0, 0.0, 0.0, 1.0, 23.8, 14.85)">
    <use height="14.35" transform="matrix(1.0, 0.0, 0.0, 1.0, -14.25, -0.4)" width="22.2" xlink:href="#shape0"/>
  </g>
  <defs>
    <g id="shape0" transform="matrix(1.0, 0.0, 0.0, 1.0, 14.25, 0.4)">
      <path d="M0.6 0.2 Q-3.4 0.55 -6.25 2.35 -10.05 4.75 -12.35 7.55 L-12.75 8.1 Q-13.9 9.25 -13.75 10.55 -13.7 11.85 -12.75 12.65 L-12.7 12.8 -12.55 12.8 Q-1.3 15.2 7.1 8.55 L7.25 8.4 7.25 8.15 Q7.9 3.9 5.75 1.25 4.55 -0.2 0.6 0.2 M6.25 7.7 Q-1.35 13.55 -12.2 11.65 -12.65 11.15 -12.7 10.5 L-12.7 10.45 Q-12.7 9.7 -11.95 8.9 L-11.55 8.4 Q-9.3 5.7 -5.7 3.35 -3.05 1.7 0.65 1.4 4.1 1.05 4.95 2.1 6.3 3.75 6.3 6.5 L6.25 7.7" fill="none" stroke="#005c6d" stroke-linecap="round" stroke-linejoin="round" stroke-width="1.0"/>
      <path d="M5.8 1.25 Q7.9 3.85 7.3 8.15 L7.3 8.4 7.15 8.55 Q-1.25 15.2 -12.45 12.8 L-12.65 12.8 -12.7 12.65 Q-13.7 11.8 -13.75 10.55 -13.85 9.2 -12.7 8.1 L-12.3 7.55 Q-10.0 4.75 -6.2 2.35 -3.4 0.55 0.6 0.2 4.55 -0.2 5.8 1.25" fill="#00596e" fill-rule="evenodd" stroke="none"/>
      <path d="M5.8 1.25 Q4.55 -0.2 0.6 0.2 -3.4 0.55 -6.2 2.35 -10.0 4.75 -12.3 7.55 L-12.7 8.1 Q-13.85 9.2 -13.75 10.55 -13.7 11.8 -12.7 12.65 L-12.65 12.8 -12.45 12.8 Q-1.25 15.2 7.15 8.55 L7.3 8.4 7.3 8.15 Q7.9 3.85 5.8 1.25 Z" fill="none" stroke="#005c6d" stroke-linecap="round" stroke-linejoin="round" stroke-width="1.0"/>
      <path d="M6.9 7.1 L6.8 8.1 Q-1.45 14.6 -12.45 12.2 L-13.0 11.35 Q-1.3 -4.4 6.9 7.1" fill="#acd495" fill-rule="evenodd" stroke="none"/>
      <path d="M-13.05 11.4 Q-13.65 9.95 -12.35 8.45 -8.65 4.5 -5.95 2.85 L-4.6 2.15 Q2.4 5.55 4.65 8.25 -3.7 12.5 -13.05 11.4" fill="#d4eff5" fill-rule="evenodd" stroke="none"/>
      <path d="M5.35 1.7 Q7.05 3.75 6.85 7.15 L4.65 8.25 Q2.4 5.55 -4.6 2.15 -1.85 0.9 1.3 0.75 4.45 0.65 5.35 1.7" fill="#81d2e4" fill-rule="evenodd" stroke="none"/>
      <path d="M-9.2 4.95 L-5.25 2.55 Q-2.35 4.0 -3.05 5.4 -3.7 6.7 -6.15 6.55 L-9.2 4.95" fill="#34bed6" fill-rule="evenodd" stroke="none"/>
    </g>
  </defs>
</svg>
